azure-icons/command-1041-Save-All.svg

<svg xmlns="http://www.w3.org/2000/svg" viewBox="0 0 16 16"><path d="M2 5V1H1v7.3l.7.7H2V6h3v1H3v2h1V8h1v2H1.3L0 8.7V1A.6.6 0 01.1.6L.3.3.6.1h8.8l.3.2.2.3a.6.6 0 01.1.4v4H9V1H8v4zm1-1h4V1H3zm12 2h.4l.3.2.2.3a.6.6 0 01.1.5v9H7.3L6 14.7V7a.6.6 0 01.1-.4l.2-.3.3-.2H15zm0 1h-1v4H8V7H7v7.3l.7.7H8v-3h6v3h1zM9 7v3h4V7zm4 8v-2H9v2h1v-1h1v1z"/></svg>

<svg xmlns="http://www.w3.org/2000/svg" viewBox="0 0 16 16"><title>Asset 89</title><path d="M2,5V1H1V8.3l.7.7H2V6H5V7H3V9H4V8H5v2H1.3L0,8.7V1A.6.6,0,0,1,.1.6L.3.3.6.1H9.4l.3.2.2.3A.6.6,0,0,1,10,1V5H9V1H8V5ZM3,4H7V1H3ZM15,6h.4l.3.2.2.3A.6.6,0,0,1,16,7v9H7.3L6,14.7V7a.6.6,0,0,1,.1-.4l.2-.3.3-.2H15Zm0,1H14v4H8V7H7v7.3l.7.7H8V12h6v3h1ZM9,7v3h4V7Zm4,8V13H9v2h1V14h1v1Z"/></svg>
